X: 1
T: Heather Connell
M: 4/4
L: 1/8
R: reel
K: Dmaj
|:d2 fd A3d | Beef gece | d2 fd A3d | BecA d2 dA |
d2 fd A3d | Beef gece | dffd A3d | BecA d2 dg :|
|:faaf d2 fd | fafd ceeg | faaf d2 fd | BecA d2 dg |
faaf d2 fd | fafd ceeg | faaf defd | BecA d2 d2 :|
